X:1
T:Title
%%score { ( 1 4 ) | ( 2 3 ) }
L:1/8
Q:1/4=88
M:4/8
K:Eb
V:1 treble nm="Grand Piano"
V:4 treble 
V:2 bass 
V:3 bass 
V:1
 GGG[FA] | [Ac][GB]GE | [DF][EG][FA][GB] | [Ac][GB] G2 | GGG[FA] | [Ac][GB]GE | FFG=A | %7
w: W.~H.~Doane * * *|||||||
 Bc [B,DB]2 | [DAc]>[DAB][Ad][Ac] | [Ac]>[GB][GB][EG] | [DF][EG][FA][Ac] | [GB]G F2 | %12
w: |||||
 GGG/A/[GB]/G/ | [EAc][EAc][Ac]/d/[ce]/d/ | [EGB][EAc][EGB][B,EG] | %15
w: |||
 [=A,EF][_A,DF] [G,E]2[Q:1/4=85][Q:1/4=82][Q:1/4=79][Q:1/4=77][Q:1/4=74][Q:1/4=71][Q:1/4=68] |] %16
w: |
V:2
 [E,B,E][E,B,E][E,B,E][E,B,] | [E,E][E,E][E,B,E][E,G,] | [B,,B,][B,,B,][B,,B,][B,,B,] | %3
 [E,B,][E,B,] [E,B,E]2 | [E,B,E][E,B,E][E,B,E][E,B,] | [E,E][E,E][E,B,E][G,B,] | %6
 [F,B,D][F,B,D][F,=A,E][F,CE] | [F,B,D][F,=A,E] B,,2 | B,,>B,,[B,,B,]B,, | %9
 [E,B,]>[E,E][E,E][E,B,] | [B,,B,][B,,B,][B,,B,][D,B,] | [E,B,][G,B,E] [B,D]2 | %12
 [E,B,E][E,B,E][E,B,]/-[E,B,F]/ z/ E/ | A,,A,, z/[K:treble] B/ z/ B/ | E,E,E,E, | C,B,, E,2 |] %16
V:3
 x4 | x4 | x4 | x4 | x4 | x4 | x4 | x4 | x4 | x4 | x4 | x4 | z2 .E[E,B,] | z2 A,,[K:treble]A,, | %14
 x4 | x4 |] %16
V:4
 x4 | x4 | x4 | x4 | x4 | x4 | x4 | x4 | x4 | x4 | x4 | x4 | x4 | z2 EE | x4 | x4 |] %16

